X:1
T:Title
%%score ( 1 2 ) { 3 | 4 }
L:1/8
Q:1/4=145
M:3/2
K:G
V:1 treble nm="Grand Piano, Soprano"
V:2 treble 
V:3 bass nm="Choir Pad, Grange, Robert B. Borthwick"
V:4 bass 
V:1
 D3 D [DB]6 [DA]2 | [DG]2 [DA]2 [DG]4 [DF]4 | [B,G]3 [B,G] [Ee]6 [=Fd]2 | [Ec]2 [GB]2 [FA]8 | %4
w: By~Robert~Brown~Borthwick,~1883 * * *||||
 D3 D [GB]6 A2 | [Ad]2 [A^c]2 [AB]4 [GB]4 | [GB]3 [GB] [FA]2 [FA]2 [Gd]4 | [G^c]4 [Fd]8 | %8
w: ||||
 D3 D [B,G]6 [EG]2 | z4 e4 z4 | z4 z4 .c4 | [FA]3 G G8 |] %12
w: ||||
V:2
 x12 | x12 | x12 | x12 | x12 | x12 | x12 | x12 | x12 | [FA]2 [GB]2 G4- [Gd]4 | %10
 [DG]2 [DG]2 [CE]4 E2- [EB]2 | x12 |] %12
V:3
 B,3 B, D6 C2 | B,2 C2 B,4 A,4 | G,3 G, G,6 G,2 | G,2 D2 D8 | D,3 D,[K:treble] D6 ^C2 | %5
 D2 D2 D4 D4 | D3 D D2 D2 E4 | E4 D8 | F,3 F, G,6 B,2 | D2 D2 C4 B,4 | G,2 G,2 G,4 A,2 B,2 | %11
 C3 B, B,8 |] %12
V:4
 G,3 G, G,6 G,2 | G,2 G,2 D,4 D,4 | E,3 E, E,6 B,,2 | C,2 G,,2 D,8 | z4 G,6 G,2 | F,2 F,2 G,4 G,4 | %6
 G,3 G, A,2 A,2 A,4 | A,4 D,8 | D,3 D, E,6 E,2 | D,2 G,2 C,4 G,,4 | B,,2 B,,2 C,4 C,4 | %11
 D,3 G, G,8 |] %12

